public/img/social/linkedin.svg

<svg width="38" height="40" viewBox="0 0 38 40" fill="none" xmlns="http://www.w3.org/2000/svg">
<path d="M28.122 9.28326H10.1381C9.1872 9.28326 8.41577 10.0547 8.41577 11.0056V28.9895C8.41577 29.9404 9.1872 30.7118 10.1381 30.7118H28.122C29.0729 30.7118 29.8443 29.9404 29.8443 28.9895V11.0056C29.8443 10.0547 29.0729 9.28326 28.122 9.28326ZM28.122 28.9976C16.1274 28.9949 10.1301 28.9922 10.1301 28.9895C10.1327 16.9949 10.1354 10.9976 10.1381 10.9976C22.1327 11.0002 28.1301 11.0029 28.1301 11.0056C28.1274 23.0002 28.1247 28.9976 28.122 28.9976ZM11.5926 17.3163H14.772V27.5431H11.5926V17.3163ZM13.1836 15.9181C14.1988 15.9181 15.0265 15.0931 15.0265 14.0752C15.0265 13.8332 14.9788 13.5936 14.8862 13.37C14.7936 13.1464 14.6579 12.9433 14.4867 12.7721C14.3156 12.601 14.1124 12.4653 13.8889 12.3727C13.6653 12.28 13.4256 12.2324 13.1836 12.2324C12.9416 12.2324 12.702 12.28 12.4784 12.3727C12.2548 12.4653 12.0517 12.601 11.8805 12.7721C11.7094 12.9433 11.5737 13.1464 11.4811 13.37C11.3884 13.5936 11.3408 13.8332 11.3408 14.0752C11.3381 15.0931 12.1631 15.9181 13.1836 15.9181ZM19.9417 22.4833C19.9417 21.1493 20.1961 19.8583 21.8488 19.8583C23.4774 19.8583 23.5015 21.3824 23.5015 22.569V27.5431H26.6783V21.9342C26.6783 19.1806 26.0836 17.0618 22.8667 17.0618C21.3211 17.0618 20.2845 17.9109 19.8586 18.7145H19.8158V17.3163H16.7649V27.5431H19.9417V22.4833Z" fill="#0592B8"/>
</svg>

<svg xmlns="http://www.w3.org/2000/svg" width="38" height="40" fill="none"><path fill="#0592B8" d="M28.122 9.283H10.138c-.95 0-1.722.772-1.722 1.723v17.983c0 .951.771 1.723 1.722 1.723h17.984c.95 0 1.722-.772 1.722-1.723V11.006c0-.951-.771-1.723-1.722-1.723Zm0 19.715c-11.995-.003-17.992-.006-17.992-.009.003-11.994.005-17.991.008-17.991 11.995.002 17.992.005 17.992.008-.003 11.994-.005 17.992-.008 17.992Zm-16.53-11.682h3.18v10.227h-3.18V17.316Zm1.592-1.398a1.845 1.845 0 0 0 1.303-3.146 1.843 1.843 0 1 0-1.303 3.146Zm6.758 6.565c0-1.334.254-2.625 1.907-2.625 1.628 0 1.652 1.524 1.652 2.711v4.974h3.177v-5.609c0-2.753-.594-4.872-3.811-4.872-1.546 0-2.582.849-3.008 1.652h-.043v-1.398h-3.051v10.227h3.177v-5.06Z"/></svg>
